X:39
T:Mandolin Concerto in C Major, 3rd mvmt-Allegro
C:Sequenced by V. Phillips
N:TablEdited by Michael P Herlihy
L:1/8
Q:1/4=200
M:2/4
K:C
z4 | ce fg | ce fg | Bd ef | Bd ef | ce fg | ce fg | BG Bd | g4 | zg fe | zg fe | 
zg fe | zg fe | zg gg | c'2 gg | c'2 fd | ce fg | ce fg | Gd ef | Gd ef | ce fg | 
ce fg | B/G/A/B/ c/d/e/f/ | g3g | g/e/g/e/ g/e/g/e/ | g/e/g/e/ g/e/g/e/ | f/c/f/c/ f/c/f/c/ | 
f/c/f/c/ f/c/f/c/ | d/B/d/B/ d/B/d/B/ | g/d/g/d/ g/d/g/d/ | e/c/e/c/ e/c/e/c/ | 
a/e/a/e/ a/e/a/e/ | ^f/d/f/d/ f/d/f/d/ | b/^f/b/f/ b/f/b/f/ | g/e/g/e/ g/e/g/e/ | 
a/e/a/e/ a/e/a/e/ | ^f/d/e/f/ g/d/g/a/ | z3/2g2^f/ | gg ab | dg ab | d^f ga | 
d^f ga | dg ab | dg ab | ad cB | zd cB | zd cB | zd cB | ^fg af | d/g/b/g/ d/g/b/g/ | 
d/^f/a/f/ d/f/a/f/ | d/g/b/g/ d/g/b/g/ | ^fd3 | e/B/e/g/ e/B/e/g/ | ^f/B/f/a/ f/B/f/a/ | 
g/e/g/b/ g/e/g/b/ | ^dB3 | eg/^f/ e/d/c/B/ | ce/d/ cA | d^f/e/ d/c/B/A/ | Bd/c/ BG | 
ce/d/ c/B/A/G/ | Ac/B/ A^F | B^d/^c/ B/A/G/^F/ | GE2B | g/a/b ze | ^d/e/^f zB | 
aa zg/^f/ | g/^f/e zb | g^f/e3/2^d | zg ab | eg ab | ^d^f ga | ^d^f ga | ge ^f^d | 
e4 | ce fg | ce fg | BG/A/ B/c/d/e/ | fB/c/ d/e/f/g/ | e/g/g/g/ e/c/c/c/ | G/E/E/E/ G/c/c/c/ | 
A/F/F/F/ A/c/c/c/ | f/a/a/a/ d/A/A/A/ | B/G/G/G/ D/G/G/G/ | B/d/d/d/ g/d/d/d/ | 
e/g/g/g/ e/g/g/g/ | d/g/g/g/ d/g/g/g/ | e/g/g/g/ e/g/g/g/ | d/g/g/g/ d/g/g/g/ | 
e/g/f/g/ e/g/f/g/ | d/g/f/g/ c/g/f/g/ | BG/A/ BB/c/ | dd/e/ fg/f/ | ec/d3/2e/f/ | 
gg/a3/2g | za/g/ ff/e/ | dd/c/ BB/A/ | GG/A/ B/c/d/e/ | fB/c/ d/e/f/g/ | e/g/g/g/ e/g/g/g/ | 
d/g/g/g/ d/g/g/g/ | ec dB | c4 | ce fg | ce fg | Bd ef | Bd ef | ce fg | ce fg | 
BG Bd | g4 | zg fe | zg3 | zg fe | zg3 | zg gg | c'2 gg | ze2d | c4 | z4 | 
 

